X:0173
M:6/8
L:1/8
Q:3/8=72
K:A Mixolydian
                                                    [2 d>AA A2 ||
g   |(f/g/)af (g/a/)ba|Tf>ed  Bde|[1  f>ef     aef |   dAA  A2 :|\
                                  [2 (f/g/)ag Tf2e |   d<AA A2 |]

